X: 120221
T: Ladies on the Road (hornpipe)
N: 130
C: BB
B: revised 1/7/07
R: hornpipe
Q: 1/8=330
M: C|
L: 1/8
K: D
(3ABc|"Bm"dBFA "G"B3 D|"A7"GFEA "D"FD D2|"Em"EGBc "Bm"dfdB|"D"AdAF "A"E2(3ABc|
"Bm"dBFA "G"B3 D|"A7"GFEA "Bm"FB B2|"D"DF"Em"EG "D"FA"G"GB|"A"Acec "D"d2 :|
A2|"Bm"FB (3BAB "F#m"cA^GA|"G"dBgf "A"ecAG|"D"F2 Ad "G"Bdgb|"D"afdB "A"A2 AG |
"Bm"FB (3BAB "F#m"cA^GA|"G"dBgf "A"ecAG|"D"FAdf "G"gB (3BAB|"A"Acec "D"d2 :|
